X:1
T:C Major Daniel Read, 1785
T:Isaac Watts, 1719 (Psalm 48)  66. 86. (S.M.)
T:Zoar No copyright. Transcribed from The American Singing-Book, 1786.
%%score [ 1 2 3 4 ]
L:1/8
M:4/4
K:C
V:1 treble nm="Treble" snm="Tr."
V:2 treble nm="Counter" snm="C."
V:3 treble-8 nm="Tenor" snm="T."
V:4 bass nm="Bass" snm="B."
V:1
 c4 | e2 e2 f2 d2 | e4 e4 | c2 c2 c2 B2 | c4 c4 | c2 B2 A2 A2 | B4 c4 | B4 B4 | c2 d2 c2 d2 | e8 |] %10
V:2
"^3. The orders   of  Thy house,   The worship of Thy court,    The cheerful songs, the solemn vows,  And   make   a   fair  report.""^2. Let strangers walk around  The  city  where  we  dwell,  Compass and view thine holy ground, And mark the building well;" G4 | %1
 G2 G2 A2 G2 | G4 G4 | G2 G2 G2 G2 | G4 G4 | G2 G2 E2 E2 | G4 G4 | G4 G4 | G2 G2 G2 G2 | G8 |] %10
V:3
"^5. The God we worship now  Will  guide  us  till we  die,   Will   be   our   God   while here below,  And  ours  above  the  sky.""^4. How decent and how wise!  How glorious to  behold!  Beyond the pomp that charms the eyes, And rites adorned with gold." c4 | %1
 c2 c2 c2 B2 | c4 c4 | e2 e2 e2 d2 | e4 e4 | e2 d2 c2 c2 | d4 e4 | d4 d4 | e2 f2 e2 d2 | c8 |] %10
V:4
 C,4 | C,2 C,2 F,2 G,2 | C,4 C,4 | [C,C]2 [C,C]2 [C,C]2 [G,,G,]2 | C,4 [C,C]4 | %5
 [C,C]2 [G,,G,]2 [A,,A,]2 [A,,A,]2 | [G,,G,]4 [C,C]4 | [G,,G,]4 [G,,G,]4 | %8
 [C,C]2 [B,,B,]2 [C,C]2 [G,,G,]2 | C,8 |] %10

